src/24/panel/synergy-panel.svg

<svg xmlns="http://www.w3.org/2000/svg" width="24" height="24"><defs><style id="current-color-scheme" type="text/css">.ColorScheme-Text{color:#dfdfdf}</style></defs><path class="ColorScheme-Text" d="M12 4a8 8 0 0 0-8 8l1.5 2L7 12a5 5 0 0 1 5-5l-2-1.5zm6.5 6L17 12a5 5 0 0 1-5 5l2 1.5-2 1.5a8 8 0 0 0 8-8z" opacity=".3" fill="currentColor"/><path class="ColorScheme-Text" d="M12 4l-2 1.5L12 7a5 5 0 0 1 5 5l1.5-2 1.5 2a8 8 0 0 0-8-8zm-8 8a8 8 0 0 0 8 8l2-1.5-2-1.5a5 5 0 0 1-5-5l-1.5 2z" fill="currentColor"/></svg>

<svg xmlns="http://www.w3.org/2000/svg" width="24" height="24" version="1.1">
 <defs>
  <style id="current-color-scheme" type="text/css">
   .ColorScheme-Text { color:#dfdfdf; } .ColorScheme-Highlight { color:#5294e2; }
  </style>
 </defs>
 <path style="opacity:0.3;fill:currentColor" class="ColorScheme-Text" d="M 12,4 A 8,8 0 0 0 4,12 L 5.5,14 7,12 A 5,5 0 0 1 12,7 L 10,5.5 Z m 6.5,6 -1.5,2 a 5,5 0 0 1 -5,5 l 2,1.5 -2,1.5 a 8,8 0 0 0 8,-8 z"/>
 <path style="fill:currentColor" class="ColorScheme-Text" d="M 12,4 10,5.5 12,7 a 5,5 0 0 1 5,5 l 1.5,-2 1.5,2 A 8,8 0 0 0 12,4 Z m -8,8 a 8,8 0 0 0 8,8 L 14,18.5 12,17 A 5,5 0 0 1 7,12 l -1.5,2 z"/>
</svg>
